src/actions/16/tools-media-optical-burn-image.svg

<svg xmlns="http://www.w3.org/2000/svg" viewBox="0 0 16 16">
  <defs id="defs3051">
    <style type="text/css" id="current-color-scheme">
      .ColorScheme-Text {
        color:#363636;
      }
      </style>
  </defs>
 <path style="fill:currentColor;fill-opacity:1;stroke:none" 
     d="M8 2.00195A6 6.00001 0 0 0 2 8.00195 6 6.00001 0 0 0 8 14.00195 6 6.00001 0 0 0 14 8.00195 6 6.00001 0 0 0 8 2.00195M8 3.00195A5 5 0 0 1 13 8.00195 5 5 0 0 1 8 13.00195 5 5 0 0 1 3 8.00195 5 5 0 0 1 8 3.00195M8 4A4 4 0 0 0 4 8H6A2 2 0 0 1 8 6zM8 7A1 1 0 0 0 7 8 1 1 0 0 0 8 9 1 1 0 0 0 9 8 1 1 0 0 0 8 7M10 8A2 2 0 0 1 8 10V12A4 4 0 0 0 12 8z"
     class="ColorScheme-Text"
     />
</svg>

<svg xmlns="http://www.w3.org/2000/svg" viewBox="0 0 16 16">
    <path d="M8 2.002a6 6 0 0 0-6 6 6 6 0 0 0 6 6 6 6 0 0 0 6-6 6 6 0 0 0-6-6m0 1a5 5 0 0 1 5 5 5 5 0 0 1-5 5 5 5 0 0 1-5-5 5 5 0 0 1 5-5M8 4a4 4 0 0 0-4 4h2a2 2 0 0 1 2-2zm0 3a1 1 0 0 0-1 1 1 1 0 0 0 1 1 1 1 0 0 0 1-1 1 1 0 0 0-1-1m2 1a2 2 0 0 1-2 2v2a4 4 0 0 0 4-4z" style="fill:currentColor;fill-opacity:1;stroke:none;color:#050505;opacity:.7"/>
</svg>
